!!!!SEGMENT: pl-kk--kk-i-1--055-003_anonim--missa-dominicale-credo.krn
!!!cenid: 15xx:788
!!!COM: Anonim
!!!COM-rismID: pe30004985
!!!CDT:
!!!CNT:
!!!OPR: [Missa] Dominicale
!!!OTL: Credo
!!!OMV: 003
!!!PDT:
!!!AGN:
!!!SMS-siglum: PL-Kk
!!!SMS-shelfmark: Kk.I.1
!!!SMS-shelfwork: 055-003 M
!!!SMS-variant:
!!!SMS-altvar:
!!!NIFC-rismSourceID: 300258009
!!!NIFC-islandoraID: pl-kk:1
!!!URL-pdf-islandora: https://repozytorium.nifc.pl/islandora/object/pl-kk%3A1/datastream/PDF/view
!!!URL-scan: https://polish.musicsources.pl/pl/lokalizacje/galeria/rekopisy/5736 @EN{Scan on Polish Music Sources Website} @PL{Skany w portalu Dziedzictwo Muzyki Polskiej w otwartym dostępie}
!!!ONB-nifc: UWAGA: Cantus (s. 166r-173v, skan 0168-0176), Altus (s. 162v-170r, skan 0356-0363), Tenor (s. 141r-146r, skan 0531-0536), Bassus (s. 152r-159v, skan 0714-0722). Części Mszy: 1. Kyrie, 2. Et in terra, 3. Sanctus, 4. Agnus Dei
!!!AIN: 1 alto 1 bass 1 soprn 1 tenor
!!!key: e
**kern	**text	**kern	**text	**kern	**text	**kern	**text
*part4	*part4	*part3	*part3	*part2	*part2	*part1	*part1
*staff4	*staff4	*staff3	*staff3	*staff2	*staff2	*staff1	*staff1
*I"BASSVS	*	*I"TENOR	*	*I"ALTVS	*	*I"CANTVS	*
*I'B	*	*I'T	*	*I'A	*	*I'C	*
*Ibass	*	*Itenor	*	*Ialto	*	*Isoprn	*
*ICvox	*	*ICvox	*	*ICvox	*	*ICvox	*
*stria6	*	*stria6	*	*stria6	*	*stria6	*
*clefF5	*	*clefC4	*	*clefC4	*	*clefC3	*
*k[]	*	*k[]	*	*k[]	*	*k[]	*
*e:	*	*e:	*	*e:	*	*e:	*
*M2/1	*	*M2/1	*	*M2/1	*	*M2/1	*
*met(C|)	*	*met(C|)	*	*met(C|)	*	*met(C|)	*
=1-	=1-	=1-	=1-	=1-	=1-	=1-	=1-
!	!	!LO:TX:t=P:problem=najwyższa linia sześciolinii wykreślona	!	!	!	!	!
*	*	*lig	*	*	*	*	*
!	!	!LO:TX:a:i:t=Dominicale	!	!	!	!	!
1.D	Pa-	1D	Pa-	2d\	Pa-	1f	Pa-
.	.	.	.	2d\	-trem	.	.
.	.	1A	.	2.f\	.	1d	-trem
2D/	-trem	.	.	.	.	.	.
.	.	.	.	4e\	om-	.	.
*	*	*Xlig	*	*	*	*	*
=2-	=2-	=2-	=2-	=2-	=2-	=2-	=2-
2.F\	om-	1A	-trem	2d\	-ni-	1a	om-
.	.	.	.	2c\	-po-	.	.
4E\	-ni-	.	.	.	.	.	.
*	*	*lig	*	*	*	*	*
1D	-po-	1A	o-	1d	-ten-	2f\	-ni-
.	.	.	.	.	.	1f\	-po-
=3-	=3-	=3-	=3-	=3-	=3-	=3-	=3-
1C	-ten-	1c	.	1G	-te(m)	.	.
.	.	.	.	.	.	2e\	-ten-
*	*	*Xlig	*	*	*	*	*
2FF,/	-tem,	1A	-mni-	2r	.	2f\	-te(m)
*	*	*	*	*	*ij	*	*
1F\	om-	.	.	2A/	om-	2c/	o(m-
=4-	=4-	=4-	=4-	=4-	=4-	=4-	=4-
*	*	*lig	*	*	*	*	*
.	.	1G	-po-	2B/	-ni-	2d\	-n)i-
2E\	-ni-	.	.	2c/	-po-	2e\	-po-
2D/	-po-	1F	.	2.A/	-ten-	4f\	-ten-
.	.	.	.	.	.	4d\	-te(m)
*	*	*	*	*	*	*	*ij
2D/	-ten-	.	.	.	.	1f\	o(m-
.	.	.	.	4B/	.	.	.
*	*	*Xlig	*	*	*	*	*
=5-	=5-	=5-	=5-	=5-	=5-	=5-	=5-
1C,	-tem	1G	-ten-	4c/	-te(m)	.	.
*	*	*	*	*	*Xij	*	*
.	.	.	.	4G/	.	.	.
.	.	.	.	1c	fac-	2e\	-n)i-
1GG	fac-	1G,	-tem	.	.	2d\	-po-
.	.	.	.	2B/	.	2d\	-ten-
=6-	=6-	=6-	=6-	=6-	=6-	=6-	=6-
2C/	-to-	1E	fa-	1G	-to-	2c,/	-te(m)
*	*	*	*	*	*	*	*Xij
2C/	-rem	.	.	.	.	2c/	fac-
1D	cae-	1F	-cto-	2d\	-re(m)	4A/	-to-
.	.	.	.	.	.	4A/	-rem
.	.	.	.	2A/	cae-	2.d\	cae-
=7-	=7-	=7-	=7-	=7-	=7-	=7-	=7-
2BB/	-li	1G	-rem	2B\	-li	.	.
*	*	*	*	*	*	*custos:c	*
.	.	.	.	.	.	4d\	-li
!	!	!	!	!	!	!LO:LB:g=original	!
2C/	et	.	.	2e\	et	1c	et
*custos:C	*	*	*	*custos:e	*	*	*
1GG	ter-	1G	cae-	1d	ter-	.	.
.	.	.	.	.	.	2B/	ter-
!LO:LB:g=original	!	!	!	!LO:LB:g=original	!	!	!
=8-	=8-	=8-	=8-	=8-	=8-	=8-	=8-
1C	-rae	1G,	-li	1e	-rae	1c	-rae
1D	cae-	1F	et	2r	.	2.A/	cae-
.	.	.	.	1f\	cae-	.	.
.	.	.	.	.	.	4B/	-li
=9-	=9-	=9-	=9-	=9-	=9-	=9-	=9-
2.AA/	-li	1A	ter-	.	.	1.c	et
.	.	.	.	4e\	-li	.	.
4BB/	et	.	.	4d\	.	.	.
0C	ter-	1G,	-rae	2e\	et	.	.
.	.	.	.	2e\	ter-	2c/	ter-
=10-	=10-	=10-	=10-	=10-	=10-	=10-	=10-
.	.	1E	Vi-	1c	.	2G/	-rae
.	.	.	.	.	.	2g\	vi-
1FF	-rae	1F	-ſi-	1.c	-rae	2a\	-si-
.	.	.	.	.	.	1f\	-bi-
=11-	=11-	=11-	=11-	=11-	=11-	=11-	=11-
1.C	vi-	1G	-bi-	.	.	.	.
.	.	.	.	2c/	.	4e\	.
.	.	.	.	.	.	4d\	.
.	.	1G	-li-	2.c/	vi-	2e\	.
2C/	-si-	.	.	.	.	2e\	-li-
.	.	.	.	4c/	-si-	.	.
=12-	=12-	=12-	=12-	=12-	=12-	=12-	=12-
*	*	*custos:G	*	*	*	*	*
1C	-bi-	1G,	-um	2c/	-bi-	2e\	-um
.	.	.	.	2e\	-li-	4c\	om-
.	.	.	.	.	.	4d\	.
!	!	!LO:LB:g=original	!	!	!	!	!
2C/	-li-	1G	om-	1c	-um	4e\	.
.	.	.	.	.	.	4f\	.
2C/	-um-	.	.	.	.	4g\	.
.	.	.	.	.	.	4e\	.
=13-	=13-	=13-	=13-	=13-	=13-	=13-	=13-
1D	-om-	1F	-ni-	1.A	om-	4f\	.
.	.	.	.	.	.	4e\	.
.	.	.	.	.	.	1d	.
1AA	-ni-	1E	-um	.	.	.	.
!	!	!	!	!	!	!LO:TX:b:t=P:problem=# below	!
.	.	.	.	2A/	-ni-	2c#X/	-ni-
=14-	=14-	=14-	=14-	=14-	=14-	=14-	=14-
*	*	*lig	*	*	*	*	*
2D,/	-um	1D	et	1A	-um	1d	-um
1F	et	.	.	.	.	.	.
.	.	1A	.	1c	et	2r	.
2F\	in-	.	.	.	.	1f\	et
*	*	*Xlig	*	*	*	*	*
=15-	=15-	=15-	=15-	=15-	=15-	=15-	=15-
2F\	-ui-	1A	in-	2c\	in-	.	.
*	*	*	*	*	*	*custos:f	*
2F\	-si-	.	.	2c\	-ui-	2f\	in-
!	!	!	!	!	!	!LO:LB:g=original	!
1.D	-bi-	1A	-ui-	1d	-si-	2f\	-vi-
.	.	.	.	.	.	2f\	-si-
=16-	=16-	=16-	=16-	=16-	=16-	=16-	=16-
.	.	1F	-ſi-	2.A/	-bi-	4d\	-bi-
.	.	.	.	.	.	4e\	.
2D/	-li-	.	.	.	.	1f	.
*	*	*	*	*custos:c	*	*	*
.	.	.	.	4B\	-li-	.	.
!	!	!	!	!LO:LB:g=original	!	!	!
*	*	*lig	*	*	*	*	*
1C,	-um	1G	-bi-	1c	-um	.	.
.	.	.	.	.	.	2e\	-li-
=17-	=17-	=17-	=17-	=17-	=17-	=17-	=17-
*	*	*	*	*	*ij	*	*
2F\	et	1A	.	2c\	et	1f	-um
*custos:E	*	*	*	*	*	*	*
2D/	in-	.	.	2d\	in-	.	.
*	*	*Xlig	*	*	*	*	*
!LO:PB:g=original	!	!	!	!	!	!	!
2E\	-ui-	1G	-li-	2B\	-ui-	1e	et
2C/	-si-	.	.	2c\	-si-	.	.
=18-	=18-	=18-	=18-	=18-	=18-	=18-	=18-
2G\	-bi-	1G,	-um	2.B\	-bi-	1d	in
2GG/	-li-	.	.	.	.	.	.
.	.	.	.	4B\	-li-	.	.
*	*	*	*	*	*	*lig	*
1C,	-um	1E	et	1c	-um	1e	v-
*	*	*	*	*	*Xij	*	*
=19-	=19-	=19-	=19-	=19-	=19-	=19-	=19-
1D	et	1F	in	1A	et	1d	.
*	*	*	*	*	*	*Xlig	*
2BB/	in	1G	V-	2G/	in	2d/	-num
1C/	v-	.	.	1c\	v-	1e\	d(o-
=20-	=20-	=20-	=20-	=20-	=20-	=20-	=20-
.	.	1G,	-num	.	.	.	.
2GG/	-num	.	.	2B\	-num	2d/	-mi)-
1C	do-	1G	Do-	2.c\	do-	1e	-num
.	.	.	.	4c\	-mi-	.	.
=21-	=21-	=21-	=21-	=21-	=21-	=21-	=21-
1D	-mi-	1F	-mi-	0A	-nu(m)	2.d\	d(o-
.	.	.	.	.	.	4d\	-mi)-
!	!	!	!	!	!	!LO:TX:b:t=P:problem=# below	!
1AA	-nu(m)	1E	-nu(m)	.	.	1c#X	-num
=22-	=22-	=22-	=22-	=22-	=22-	=22-	=22-
1.BB-X	Je-	1F	Je-	1D	Je-	1.d	Je-
.	.	1D	-ſum	2F/	-sum	.	.
2BB-/	-sum	.	.	2.F/	CHr(i-	2d/	-sum
=23-	=23-	=23-	=23-	=23-	=23-	=23-	=23-
1GG	chr(i-	1G	Chr(i-	.	.	1B-X	CHr(i-
.	.	.	.	8E/L	.	.	.
.	.	.	.	8D/J	.	.	.
.	.	.	.	2E/	-st)um	.	.
2FF/	-stu)m	1A	-st)um	1F	.	2A/	-stu)m
2.F\	fi-	.	.	.	.	2a\	fi-
=24-	=24-	=24-	=24-	=24-	=24-	=24-	=24-
*	*	*lig	*	*	*	*	*
*	*	*	*	*custos:d	*	*	*
.	.	1A	fi-	1f	fi-	4a\	-li-
*	*	*	*	*	*	*custos:a	*
4F\	-li-	.	.	.	.	4a\	-um
!	!	!	!	!	!	!LO:PB:g=original	!
2D/	-um	.	.	.	.	1a	De-
!	!	!	!	!LO:LB:g=original	!	!	!
1G	De-	1B-X	.	2d\	-li-	.	.
.	.	.	.	2e\	-um	2g\	-i
*	*	*Xlig	*	*	*	*	*
=25-	=25-	=25-	=25-	=25-	=25-	=25-	=25-
2D/	-i	1A	-li-	1f	De-	1.a	v-
1F	u-	.	.	.	.	.	.
*	*	*custos:A	*	*	*	*	*
.	.	1A,	-um	2c\	-i	.	.
2F\	-ni-	.	.	2.c\	fi-	2a\	-ni-
!	!	!LO:LB:g=original	!	!	!	!	!
=26-	=26-	=26-	=26-	=26-	=26-	=26-	=26-
*custos:C	*	*	*	*	*	*	*
1F	-ge-	1A	De-	.	.	2f\	.
.	.	.	.	4c\	-li-	.	.
.	.	.	.	2c\	-um	1f	-ge-
!LO:LB:g=original	!	!	!	!	!	!	!
0C	-ni-	1G	-i	0c	De-	.	.
.	.	.	.	.	.	4e\	.
.	.	.	.	.	.	4d\	.
=27-	=27-	=27-	=27-	=27-	=27-	=27-	=27-
.	.	1G	V-	.	.	1e	-ni-
2FF/	-tum	1F	-ni-	1A	-i	2f\	-tum
1F\	u-	.	.	.	.	1a\	v-
=28-	=28-	=28-	=28-	=28-	=28-	=28-	=28-
.	.	1A	-ge-	2c\	v-	.	.
2D/	-ni-	.	.	2d\	-ni-	2f\	-ni-
2D/	-ge-	1F	-ni-	2.A/	-ge-	4d\	-ge-
.	.	.	.	.	.	4e\	.
2D/	-ni-	.	.	.	.	2.f\	.
.	.	.	.	4B/	.	.	.
=29-	=29-	=29-	=29-	=29-	=29-	=29-	=29-
1.C,	-tum	1G,	-tum	1c	-ni-	.	.
.	.	.	.	.	.	8e\L	.
.	.	.	.	.	.	8d\J	.
.	.	.	.	.	.	2e\	-ni-
.	.	1E	et	2G/	-tum	2cny/	-tum
2C/	et	.	.	2c\	et	2e\	et
=30-	=30-	=30-	=30-	=30-	=30-	=30-	=30-
1D	ex	1F	ex	2.A/	ex	2d\	ex
.	.	.	.	.	.	2.f\	pa-
.	.	.	.	4B/	.	.	.
1.C	pa-	1G	p(at)-	1.c	pa-	.	.
.	.	.	.	.	.	8e\L	.
.	.	.	.	.	.	8d\J	.
.	.	.	.	.	.	2e\	.
=31-	=31-	=31-	=31-	=31-	=31-	=31-	=31-
.	.	1E	-re	.	.	2g\	.
2C/	-tre	.	.	2c\	-tre	2g\	-tre
*	*	*	*	*custos:c	*	*custos:f	*
1C	na-	1G	na-	1c	na-	1e	na-
!	!	!	!	!LO:PB:g=original	!	!LO:LB:g=original	!
=32-	=32-	=32-	=32-	=32-	=32-	=32-	=32-
2FF/	-tu(m)	1A	-tu(m)	1c	-tum	1f	-tum
*	*ij	*	*	*	*	*	*
1F	et	.	.	.	.	.	.
*	*	*lig	*	*	*	*	*
.	.	1A	an-	2c\	et	2a\	et
2F\	ex	.	.	2c\	ex	2a\	ex
=33-	=33-	=33-	=33-	=33-	=33-	=33-	=33-
2D/	pa-	1B-X	.	2d\	p(at)-	2f\	.
2E\	-tre	.	.	2G/	-re	2g\	pa-
*	*	*Xlig	*	*	*	*	*
0F	na-	1A	-te	0c	na-	2.a\	-tre
.	.	.	.	.	.	4g\	na-
=34-	=34-	=34-	=34-	=34-	=34-	=34-	=34-
.	.	1A	om-	.	.	4f\	.
.	.	.	.	.	.	4e\	.
.	.	.	.	.	.	2.f\	.
1C	-tum	1G	-ni-	1c	-tu(m)	.	.
*	*Xij	*	*	*	*	*	*
.	.	.	.	.	.	8e\L	.
.	.	.	.	.	.	8d\J	.
.	.	.	.	.	.	2e\	.
=35-	=35-	=35-	=35-	=35-	=35-	=35-	=35-
2r	.	1F,	-a	1A	an-	2f\	-tu(m)
1F	an-	.	.	.	.	2a\	an-
*	*	*lig	*	*	*	*	*
.	.	1G	ſae-	2B\	-te	1g	-te
*custos:F	*	*	*	*	*	*	*
2E\	-te	.	.	2.c\	om-	.	.
!LO:LB:g=original	!	!	!	!	!	!	!
=36-	=36-	=36-	=36-	=36-	=36-	=36-	=36-
2.F\	om-	1A	.	.	.	2.f\	o(m-
.	.	.	.	4c\	-ni-	.	.
.	.	.	.	2c\	-a	.	.
4F\	-ni-	.	.	.	.	4f\	-n)i-
*	*	*Xlig	*	*	*	*	*
1C	-a	1G	-cu-	1.c	se-	1e	-a
=37-	=37-	=37-	=37-	=37-	=37-	=37-	=37-
1G	ſae-	1G,	-la	.	.	1.d	ſe-
.	.	.	.	4B\	.	.	.
.	.	.	.	4A\	.	.	.
1GG	-cu-	1G	De-	2B\	.	.	.
.	.	.	.	2B\	-cu-	2d\	-cu-
=38-	=38-	=38-	=38-	=38-	=38-	=38-	=38-
1C	-la	1G	-u(m)	1c	-la	1e	-la
*	*	*custos:A	*	*	*	*	*
2r	.	1F	de	1A	De-	2.a\	De-
1F\	De-	.	.	.	.	.	.
.	.	.	.	.	.	4a\	-u(m)
!	!	!LO:LB:g=original	!	!	!	!	!
=39-	=39-	=39-	=39-	=39-	=39-	=39-	=39-
.	.	1A	De-	2c\	-u(m)	2f\	de
2F,\	-um	.	.	2c\	de	1f	De-
1C	de	1G	-o	1c	De-	.	.
.	.	.	.	.	.	4e\	.
*	*	*	*	*	*	*custos:e	*
.	.	.	.	.	.	4d\	.
!	!	!	!	!	!	!LO:LB:g=original	!
=40-	=40-	=40-	=40-	=40-	=40-	=40-	=40-
1C	De-	1G	lu-	1c	-o	1e	.
2D/	-o	1F	-men	1A	lu-	2f\	-o
1F\	lu-	.	.	.	.	2a\	lu-
=41-	=41-	=41-	=41-	=41-	=41-	=41-	=41-
*	*	*lig	*	*	*	*	*
.	.	1G	de	2B\	-men	1g	-men
*	*	*	*	*custos:A	*	*	*
2E\	-men	.	.	1c	de	.	.
1F	de	1A	.	.	.	2f\	de
!	!	!	!	!LO:LB:g=original	!	!	!
.	.	.	.	1A/	lu-	2c/	lu-
*	*	*Xlig	*	*	*	*	*
=42-	=42-	=42-	=42-	=42-	=42-	=42-	=42-
2.D/	lu-	1F	lu-	.	.	1d	-mi-
.	.	.	.	2B\	-mi-	.	.
4D/	-mi-	.	.	.	.	.	.
1C	-ne	1E	-mi-	1c	-ne.	1G	-ne.
=43-	=43-	=43-	=43-	=43-	=43-	=43-	=43-
2.FF/	De-	1F	-ne	2f\	De-	1A	De-
.	.	.	.	1d	-u(m)	.	.
4GG/	-u(m)	.	.	.	.	.	.
1AA	ve-	1E	De-	.	.	2A/	-um
!	!	!	!	!LO:TX:a:t=P:problem=# above	!	!	!
.	.	.	.	2c#X\	ve-	2A/	ve-
=44-	=44-	=44-	=44-	=44-	=44-	=44-	=44-
*custos:D	*	*	*	*	*	*	*
!LO:TX:t=P:problem=jedna nuta wymazana, zanotowana raz jeszcze na początku następnego systemu	!	!	!	!	!	!	!
2DD/	-rum	1D	-um	2d\	-ru(m)	2A/	-rum
!LO:LB:g=original	!	!	!	!	!	!	!
2D/	de	.	.	2A/	.	2f\	de
2C/	De-	1G	Ve-	2cny\	de	2e\	De-
2BBny/	-o	.	.	2G/	De-	1d/	-o
=45-	=45-	=45-	=45-	=45-	=45-	=45-	=45-
1AA	ve-	1A	-ru(m)	2F/	-o	.	.
!	!	!	!	!	!	!LO:TX:b:t=P:problem=# below	!
.	.	.	.	2E/	ve-	2c#X/	ve-
2D,/	-ro	1A	de	2D/	-ro	2d\	-ro
2D/	de	.	.	1f\	de	1a\	de
=46-	=46-	=46-	=46-	=46-	=46-	=46-	=46-
2.F\	De-	1A	De-	.	.	.	.
.	.	.	.	1c	De-	2.f\	De-
4G\	-o	.	.	.	.	.	.
2A\	.	1F	-o	.	.	.	.
.	.	.	.	.	.	4g\	.
2A\	.	.	.	2c\	-o	1a\	-o
=47-	=47-	=47-	=47-	=47-	=47-	=47-	=47-
1F	ve-	1A	Ve-	0c	ve-	.	.
.	.	.	.	.	.	2.f\	ve-
0C,	-ro	1G,	-ro	.	.	.	.
.	.	.	.	.	.	8e\L	.
.	.	.	.	.	.	8d\J	.
.	.	.	.	.	.	4e\	.
.	.	.	.	.	.	4f\	.
=48-	=48-	=48-	=48-	=48-	=48-	=48-	=48-
*	*	*	*	*	*	*custos:f	*
.	.	1E	ge-	1c	-ro	1g	.
!	!	!	!	!	!	!LO:LB:g=original	!
2.D/	ge-	1F	-ni-	2.A/	ge-	2f\	-ro
.	.	.	.	.	.	2.d\	ge-
4D/	-ni-	.	.	4A/	-ni-	.	.
=49-	=49-	=49-	=49-	=49-	=49-	=49-	=49-
2BB/	-tum	1G	-tu(m)	4B/	-tum	.	.
.	.	.	.	4G/	.	4d\	-ni-
2C/	non	.	.	2.c/	non	2e\	-tum
1GG	fac-	1G	non	.	.	2d\	non
.	.	.	.	8B/L	.	.	.
.	.	.	.	8A/J	.	.	.
*	*	*	*	*custos:c	*	*	*
.	.	.	.	2B/	fac-	2d\	fac-
!	!	!	!	!LO:LB:g=original	!	!	!
=50-	=50-	=50-	=50-	=50-	=50-	=50-	=50-
1C	-tum	1G	fac	1c	.	1e	-tum
*	*	*custos:E	*	*	*	*	*
2.D/	con-	1F	tum	1A	-tum	2.d\	con-
4D/	-ſub-	.	.	.	.	4d\	-sub-
!	!	!LO:PB:g=original	!	!	!	!	!
=51-	=51-	=51-	=51-	=51-	=51-	=51-	=51-
2AA/	-ſtan-	1E	con-	2r	.	2cny/	-stan-
*custos:FF	*	*	*	*	*	*	*
2AA/	-ti-	.	.	2A/	con-	2c/	-ti-
!LO:PB:g=original	!	!	!	!	!	!	!
2.FF/	-a-	1F	-ſub-	2A/	-sub-	2c/	-a-
.	.	.	.	2A/	-stan-	1d/	-le(m)
4GG/	-lem	.	.	.	.	.	.
=52-	=52-	=52-	=52-	=52-	=52-	=52-	=52-
*lig	*	*	*	*	*	*	*
1AA	pa-	1E	-ſtan-	2A/	-ti-	.	.
.	.	.	.	2A/	-a-	2c/	p(at)-
1D	.	1F	-ti-	4f\	-lem	2d\	-ri
.	.	.	.	4e\	.	.	.
.	.	.	.	1d\	.	2.a\	pa-
*Xlig	*	*	*	*	*	*	*
=53-	=53-	=53-	=53-	=53-	=53-	=53-	=53-
1AA	-tri	1E	-a-	.	.	.	.
.	.	.	.	.	.	4g\	.
!	!	!	!	!LO:TX:a:t=P:problem=# above	!	!	!
.	.	.	.	2c#X\	pa-	2e\	-tri
2r	.	1D,	-lem	1d	-tri	2f\	.
2F\	per	.	.	.	.	1f\	per
=54-	=54-	=54-	=54-	=54-	=54-	=54-	=54-
1C	quem	1G	Pa-	2cny\	per	.	.
.	.	.	.	2c\	que(m)	2e\	quem
2.F\	o(m-	1A,	-tri	2.c\	o(m-	2.a\	om-
4F\	-n)i-	.	.	4c\	-n)i-	4a\	-ni-
=55-	=55-	=55-	=55-	=55-	=55-	=55-	=55-
*	*	*lig	*	*	*	*	*
*	*	*	*	*	*	*custos:a	*
2F\	-a	1A	per	2c\	-a	2f\	-a
!	!	!	!	!	!	!LO:PB:g=original	!
2D\	fac-	.	.	2f\	fac-	1a	fac-
1G	-ta	1B-X	.	1d	-ta	.	.
.	.	.	.	.	.	1g\	-ta
*	*	*Xlig	*	*	*	*	*
=56-	=56-	=56-	=56-	=56-	=56-	=56-	=56-
1D	sunt	1A	quem	1d	sunt	.	.
!	!	!	!	!	!	!LO:TX:a:t=P:problem=# above	!
.	.	.	.	.	.	2f#X\	sunt
2r	.	1A	om-	2r	.	2r	.
*	*	*	*	*custos:B	*	*	*
1F\	o(m-	.	.	2A/	om-	2c/	om-
!	!	!	!	!LO:LB:g=original	!	!	!
=57-	=57-	=57-	=57-	=57-	=57-	=57-	=57-
.	.	1G	-ni-	2B\	-ni-	2d/	-ni-
2E\	-n)i-	.	.	2c\	-a	2e/	-a
2D/	-a	1F	-a	2d\	fac-	4fny\	fa-
.	.	.	.	.	.	4d\	.
2D/	fac-	.	.	2A/	-ta	1f\	.
=58-	=58-	=58-	=58-	=58-	=58-	=58-	=58-
*	*	*lig	*	*	*	*	*
1C	-ta	1G	fa-	1c	sunt	.	.
.	.	.	.	.	.	2e\	-cta
1FF,	ſunt	1A	.	1c	q(ui)	2f\	ſunt
.	.	.	.	.	.	1f\	qui
*	*	*Xlig	*	*	*	*	*
=59-	=59-	=59-	=59-	=59-	=59-	=59-	=59-
1C	qui	1G	-cta	1.c	prop-	.	.
.	.	.	.	.	.	4e\	.
.	.	.	.	.	.	4d\	.
1.C	prop-	1G	ſunt	.	.	2.e\	pro-
.	.	.	.	2c\	-ter	.	.
.	.	.	.	.	.	4f\	.
=60-	=60-	=60-	=60-	=60-	=60-	=60-	=60-
.	.	1E	qui	1c	nos	2g\	.
*custos:D	*	*	*	*	*	*	*
2C/	-ter	.	.	.	.	2g\	-pter
!LO:LB:g=original	!	!	!	!	!	!	!
1D	nos	1F	p(ro)p-	2.A/	ho-	2f\	nos
.	.	.	.	.	.	1d/	.
.	.	.	.	4A/	-(m)i-	.	.
=61-	=61-	=61-	=61-	=61-	=61-	=61-	=61-
*	*	*custos:G	*	*	*	*	*
2BB/	ho-	1G	-ter	2B\	-(n)es	.	.
2C/	-mi-	.	.	2e\	ho-	1c	ho-
!	!	!LO:LB:g=original	!	!	!	!	!
1GG,	-nes	1G	nos	1d	-(m)i-	.	.
.	.	.	.	.	.	2Bny/	-mi-
=62-	=62-	=62-	=62-	=62-	=62-	=62-	=62-
1C	ho-	1G	ho-	1e	-(n)es	1c	-nes
1D	-(m)i-	1F	-mi-	4f\	ho-	1.A	ho-
.	.	.	.	4e\	.	.	.
.	.	.	.	1d\	-(m)i-	.	.
=63-	=63-	=63-	=63-	=63-	=63-	=63-	=63-
1AA,	-(n)es	1E,	-nes	.	.	.	.
*	*	*	*	*	*	*custos:A	*
!	!	!	!	!LO:TX:a:t=P:problem=# above	!	!	!
.	.	.	.	2c#X\	-(n)es	2A/	-mi-
!	!	!	!	!	!	!LO:LB:g=original	!
1D	et	1F	et	2d\	.	2A/	-nes
.	.	.	.	2A/	et	2a\	et
=64-	=64-	=64-	=64-	=64-	=64-	=64-	=64-
2F\	prop-	1D	pro-	2A/	prop-	2f\	prop-
2F\	-ter	.	.	2A/	-ter	2f\	-ter
*	*	*	*	*custos:c	*	*	*
1.C	n(os-	1E	-pter	1cny	nos-	1g	nos-
!	!	!	!	!LO:PB:g=original	!	!	!
=65-	=65-	=65-	=65-	=65-	=65-	=65-	=65-
.	.	1G	no-	2c\	-tram	2e\	-tra(m)
2GG/	-t)ram	.	.	2B\	sa-	2d\	ſa-
1C	ſa-	1E	-ſtra(m)	1G	-lu-	0c	-lu-
=66-	=66-	=66-	=66-	=66-	=66-	=66-	=66-
1AA	-lu-	1F	ſa-	1A	-tem	.	.
2GG/	-tem	1G	-lu-	2d\	de-	1B	-tem,
2G\	de-	.	.	2.B\	-scen-	.	.
=67-	=67-	=67-	=67-	=67-	=67-	=67-	=67-
2E\	-sce(n)-	1G,	-tem	.	.	2g\	de-
.	.	.	.	4G/	-dit	.	.
*	*	*	*	*	*ij	*	*
2C\	-dit	.	.	2c\	de-	2.e\	-scen-
*	*ij	*	*	*	*	*	*
1C	de-	1G	de-	1c	-scen-	.	.
.	.	.	.	.	.	4c/	-dit
.	.	.	.	.	.	2e\	de
=68-	=68-	=68-	=68-	=68-	=68-	=68-	=68-
2.GG/	-sce(n)-	1G	-ſcen-	2B\	-dit	2d\	cae-
*	*	*	*	*	*Xij	*	*
.	.	.	.	2B\	de	2d\	-lis
4GG,/	-dit	.	.	.	.	.	.
*	*Xij	*	*	*	*	*	*
*custos:D	*	*	*	*	*	*	*
1C	de	1G	-dit	1c	cae-	4e\	de
.	.	.	.	.	.	4f\	.
.	.	.	.	.	.	4g\	.
.	.	.	.	.	.	4e\	.
!LO:LB:g=original	!	!	!	!	!	!	!
=69-	=69-	=69-	=69-	=69-	=69-	=69-	=69-
0D	cae-	1F	de	1A	-lis	4f\	.
.	.	.	.	.	.	4g\	.
.	.	.	.	.	.	4a\	.
.	.	.	.	.	.	4g\	.
!	!	!	!	!	!	!LO:TX:a:t=P:problem=# above	!
.	.	1A	cae-	2r	.	4f#X\	cae-
.	.	.	.	.	.	2g\	.
*	*	*	*	*	*ij	*	*
.	.	.	.	2d\	de-	.	.
!	!	!	!	!	!	!LO:TX:a:t=P:problem=# above	!
.	.	.	.	.	.	4f#X\	-lis
=70-	=70-	=70-	=70-	=70-	=70-	=70-	=70-
*	*	*custos:E	*	*	*	*	*
2GG/	-lis	[0G;l	-lis.	2.B\	-scen-	2g,\	.
!LO:TX:t=P:problem=kreska pseudotaktowa	!	!	!	!	!	!	!
2GG/	de	.	.	.	.	2d\	de
.	.	.	.	4B\	-dit	.	.
1C	cae-	.	.	2c\	de	1e	cae-
.	.	.	.	1c\	cae-	.	.
=71-	=71-	=71-	=71-	=71-	=71-	=71-	=71-
!LO:TX:t=P:problem=kreska pseudotaktowa	!	!	!	!	!	!	!
0GGl	-lis.	0G]	.	.	.	0dl	-lis
.	.	.	.	4B/	.	.	.
.	.	.	.	4A/	.	.	.
*	*	*	*	*custos:A	*	*	*
.	.	.	.	1Bl	-lis	.	.
*	*	*	*	*	*Xij	*	*
!	!	!LO:LB:g=original	!	!LO:LB:g=original	!	!LO:LB:g=original	!
=72||	=72||	=72||	=72||	=72||	=72||	=72||	=72||
1AA	Et	1E	Et	1A	Et	2c/	Et
.	.	.	.	.	.	2c/	in-
2D/	in-	1F	in-	2A/	in-	2d\	-car-
2D/	-car-	.	.	2A/	-car-	1f\	-na-
=73-	=73-	=73-	=73-	=73-	=73-	=73-	=73-
1.C	-na-	1G	-car-	1c	-na-	.	.
.	.	.	.	.	.	4e\	.
.	.	.	.	.	.	4d\	.
.	.	1G	-na-	1c	-tus	2e\	.
2C/	-tus	.	.	.	.	2e\	-tus
=74-	=74-	=74-	=74-	=74-	=74-	=74-	=74-
1FF	est	1F	-tus	1A	e(st)	2f\	est
.	.	.	.	.	.	2c/	de
!	!	!	!	!	!	!LO:TX:b:t=P:problem=# below	!
2AA/	de	1E	eſt	1A	de	1c#X	spi-
1AA/	spi-	.	.	.	.	.	.
=75-	=75-	=75-	=75-	=75-	=75-	=75-	=75-
!	!	!	!	!	!	!LO:TX:b:t=P:problem=# below	!
.	.	1E	de	2.A/	spi-	2c#X/	-ri-
2AA/	-ri-	.	.	.	.	2c#/	-tu
.	.	.	.	4A/	-ri-	.	.
1D	-tu	1F	Spi-	2A/	-tu	1d	san-
.	.	.	.	2A/	sanc-	.	.
=76-	=76-	=76-	=76-	=76-	=76-	=76-	=76-
!	!	!	!	!	!	!LO:TX:b:t=P:problem=# below	!
1AA	s(an)-	1E	-ri-	2A/	-to	1c#X	-cto
.	.	.	.	2e\	de	.	.
*custos:D	*	*	*	*	*	*	*
2DD/	-cto.	1D	-tu	2.f\	ſp(i-	2r	.
!LO:LB:g=original	!	!	!	!	!	!	!
2D/	De	.	.	.	.	2A/	de
.	.	.	.	4f\	-ri-	.	.
=77-	=77-	=77-	=77-	=77-	=77-	=77-	=77-
2.C/	ſp(i-	1G	San-	2e\	-t)u	2.cny/	spi-
*	*	*	*	*	*ij	*	*
.	.	.	.	2e\	de	.	.
4C/	-ri-	.	.	.	.	4c/	-ri-
2AA/	-t)u	1A	-cto	2.c\	ſp(i-	2e\	-tu
*	*ij	*	*	*	*	*	*
2F\	de	.	.	.	.	2f\	.
.	.	.	.	4c\	-ri-	.	.
=78-	=78-	=78-	=78-	=78-	=78-	=78-	=78-
*	*	*lig	*	*	*	*	*
2.F\	ſp(i-	1A	ex	2c\	-t)u	4f\	.
*	*	*	*	*	*Xij	*	*
.	.	.	.	.	.	4g\	.
.	.	.	.	2c\	.	1a	.
4F\	-ri-	.	.	.	.	.	.
2D\	-t)u	1B-X	.	2f\	.	.	.
*	*Xij	*	*	*	*	*	*
2E\	sanc-	.	.	4e\	.	2g\	Sanc-
.	.	.	.	4d\	.	.	.
*	*	*Xlig	*	*	*	*	*
=79-	=79-	=79-	=79-	=79-	=79-	=79-	=79-
*	*	*	*	*	*	*custos:f	*
1F,	-to	1A	Ma-	1c	sanc-	1a	-to
!	!	!	!	!	!	!LO:LB:g=original	!
1.D	ex	1A	-ri-	1d	-to	1f	ex
=80-	=80-	=80-	=80-	=80-	=80-	=80-	=80-
*	*	*	*	*custos:c	*	*	*
.	.	1F	-a	1A	ex	2f\	Ma-
2D/	Ma-	.	.	.	.	2.f\	-ri-
!	!	!	!	!LO:LB:g=original	!	!	!
*	*	*lig	*	*	*	*	*
1C	-ri-	1G	Vir	2c\	Ma-	.	.
.	.	.	.	.	.	8e\L	.
.	.	.	.	.	.	8d\J	.
.	.	.	.	1c\	-ri-	2e\	.
=81-	=81-	=81-	=81-	=81-	=81-	=81-	=81-
2FF/	-a	1A	­	.	.	1c	-a
1F	vir-	.	.	2F/	-a	.	.
*	*	*Xlig	*	*	*	*	*
.	.	1G	gi-	1C	vir-	1.c	vir-
4E\	.	.	.	.	.	.	.
4D\	.	.	.	.	.	.	.
=82-	=82-	=82-	=82-	=82-	=82-	=82-	=82-
*	*	*custos:A	*	*	*	*	*
2E\	-gi-	1G	-ne	1C	-gi-	.	.
2E\	-ne	.	.	.	.	2c/	-gi-
!	!	!LO:LB:g=original	!	!	!	!	!
1F,	.	1A	Et	2F/	-ne	1c	-ne
.	.	.	.	2c\	et	.	.
=83-	=83-	=83-	=83-	=83-	=83-	=83-	=83-
1D	et	1A	Ho-	1d	ho-	1f	et
1D	ho-	1F	-mo	1A	-mo	2f\	ho-
.	.	.	.	.	.	2d\	-mo
=84-	=84-	=84-	=84-	=84-	=84-	=84-	=84-
*	*	*lig	*	*	*	*	*
2C\	-mo	1G	fa-	2c\	fa-	4e\	fa-
.	.	.	.	.	.	4f\	.
*custos:D	*	*	*	*	*	*	*
2E\	fac-	.	.	4B\	.	1g	.
.	.	.	.	4c\	.	.	.
!LO:PB:g=original	!	!	!	!	!	!	!
1D	-tus	1A	.	2d\	.	.	.
!	!	!	!	!	!	!LO:TX:a:t=P:problem=# above	!
.	.	.	.	2d\	-ctus	2f#X\	-ctus
*	*	*Xlig	*	*	*	*	*
=85-	=85-	=85-	=85-	=85-	=85-	=85-	=85-
2GG,/	est.	1G	-ct(us)	2B\	e(st)	2g\	est
1C	Cru-	.	.	1c	Cru-	1e	cru-
.	.	1G,	est.	.	.	.	.
2BB/	-ci-	.	.	2G/	-ci-	2d\	-ci-
=86-	=86-	=86-	=86-	=86-	=86-	=86-	=86-
1C	-fi-	1E	Cru-	1G	-fi-	1.c	-fi-
1AA,	-xus	1F	-ci-	1A	-xus	.	.
.	.	.	.	.	.	2c/	-xus
=87-	=87-	=87-	=87-	=87-	=87-	=87-	=87-
1GG	e-	1G	-fi-	2.d\	.	2.B-X/	cru-
.	.	.	.	4d\	.	4B-/	-ci-
1D	-ti-	1F,	-xus	2d\	.	2A/	-fi-
*	*	*	*	*	*	*custos:A	*
.	.	.	.	2d\	.	2A/	-xus.
!	!	!	!	!	!	!LO:PB:g=original	!
=88-	=88-	=88-	=88-	=88-	=88-	=88-	=88-
1AA	-am	1E	e-	2c\	e-	2.A/	e-
.	.	.	.	2c\	-ti-	.	.
.	.	.	.	.	.	4A/	-ti-
2.FF/	pro	1F	-tiam	4c\	-am	2A/	-am
.	.	.	.	4A\	.	.	.
.	.	.	.	1d\	pro	2A/	p(ro)
4GG/	.	.	.	.	.	.	.
=89-	=89-	=89-	=89-	=89-	=89-	=89-	=89-
1AA	no-	1E	pro	.	.	1A	no-
*	*	*	*	*custos:d	*	*	*
!	!	!	!	!LO:TX:a:t=P:problem=# above	!	!	!
.	.	.	.	2c#X\	no-	.	.
!	!	!	!	!LO:LB:g=original	!	!	!
2DD,/	-bis	1D	.	2d\	-bis	2A/	-bis
2D/	ſub	.	.	2d\	sub	2fny\	ſub
=90-	=90-	=90-	=90-	=90-	=90-	=90-	=90-
2.E\	Pon-	1G	no-	1B	Pon-	2.e\	Pon-
4E\	-ti-	.	.	.	.	4e\	-ti-
2F\	-o	1A	-bis	2A/	-ti-	2c/	-o
1D\	Pi-	.	.	1d\	-o	1f\	Pi-
=91-	=91-	=91-	=91-	=91-	=91-	=91-	=91-
.	.	1A	ſub	.	.	.	.
2D/	-la-	.	.	1d	Pi-	2f\	-la-
*	*	*custos:G	*	*	*	*	*
1AA,	-to	0A	Pon-	.	.	1e	-to
!	!	!	!	!LO:TX:a:t=P:problem=# above	!	!	!
.	.	.	.	2c#X\	-la-	.	.
=92-	=92-	=92-	=92-	=92-	=92-	=92-	=92-
2.D/	Pi-	.	.	1d	-to	2.f\	Pi-
4C/	.	.	.	.	.	8e\L	.
.	.	.	.	.	.	8f\J	.
!	!	!LO:PB:g=original	!	!	!	!	!
2BB/	.	1G	-ti-	2r	.	2g\	.
2C/	.	.	.	2e\	Pi	1c/	.
=93-	=93-	=93-	=93-	=93-	=93-	=93-	=93-
*custos:C	*	*	*	*	*	*	*
1GG	-la-	1G,	-o	1d	la	.	.
.	.	.	.	.	.	2Bny/	-la-
!LO:LB:g=original	!	!	!	!	!	!	!
1C	-to.	1G	Pi-	2e\	to	1c	-to
*	*	*	*	*	*ij	*	*
.	.	.	.	2e\	Pi-	.	.
=94-	=94-	=94-	=94-	=94-	=94-	=94-	=94-
2r	.	1G	-la-	2d\	-la-	2r	.
1C	paſ-	.	.	2cny\	-to	1e	paſ-
*	*	*	*	*	*Xij	*	*
.	.	1G	-to	2r	.	.	.
2C/	-sus	.	.	1c\	paſ-	2e\	-sus
=95-	=95-	=95-	=95-	=95-	=95-	=95-	=95-
1F	et	1A	paſ-	.	.	2f,\	et
.	.	.	.	2c\	-sus	1f	ſe-
1C	ſe-	1G	-ſus	2c\	et	.	.
.	.	.	.	2c\	ſe-	4e\	-pu-
*	*	*	*	*	*	*custos:e	*
.	.	.	.	.	.	4d\	.
!	!	!	!	!	!	!LO:LB:g=original	!
=96-	=96-	=96-	=96-	=96-	=96-	=96-	=96-
1C	-pul-	1G	et	2.c\	-pul-	1e	-tus
.	.	.	.	4c\	-tus	.	.
1D	-tus	1F	ſe-	1A	est	1d	.
=97-	=97-	=97-	=97-	=97-	=97-	=97-	=97-
!	!	!	!	!	!	!LO:TX:b:t=P:problem=# below	!
1AA	est	1A	-pul-	2r	.	1c#X	est
*	*	*	*	*custos:e	*	*	*
.	.	.	.	2e\	et	.	.
!	!	!	!	!LO:PB:g=original	!	!	!
2C/	et	1G	-tus	2e\	.	2r	.
2C/	ſe-	.	.	1e\	.	2cny/	et
=98-	=98-	=98-	=98-	=98-	=98-	=98-	=98-
2.C/	-pul-	0G,	eſt.	.	.	2c/	ſe-
.	.	.	.	2e\	.	2.c/	-pul-
4C/	-tus	.	.	.	.	.	.
1GG,	e(st)	.	.	1d	.	.	.
.	.	.	.	.	.	8B/L	.
.	.	.	.	.	.	8A/J	.
.	.	.	.	.	.	2B/	.
=99-	=99-	=99-	=99-	=99-	=99-	=99-	=99-
1C	et	1E	et	2r	.	1c	-tus
.	.	.	.	2e\	et	.	.
2D/	re-	1F	re-	4d\	re-	1A	e(st)
.	.	.	.	4e\	-ſur-	.	.
2D/	-ſur-	.	.	1f\	-re-	.	.
=100-	=100-	=100-	=100-	=100-	=100-	=100-	=100-
0C	-re-	1G	-ſur-	.	.	1c	et
.	.	.	.	4e\	.	.	.
.	.	.	.	4d\	.	.	.
.	.	1G	-re-	1e	-xit	2c/	re-
.	.	.	.	.	.	2c/	-ſur-
=101-	=101-	=101-	=101-	=101-	=101-	=101-	=101-
1FF	-xit	1F,	-xit	2f\	.	1A	-re-
.	.	.	.	1c	ter-	.	.
1C	ter-	1E	ter-	.	.	1G	-xit
.	.	.	.	2c\	-ti-	.	.
=102-	=102-	=102-	=102-	=102-	=102-	=102-	=102-
2BB-X/	-ti-	1F	-ti-	2.d\	-a	2r	.
*custos:BB-	*	*	*	*	*	*	*
2BB-/	-a	.	.	.	.	2d\	ter-
.	.	.	.	4c\	.	.	.
*	*	*custos:G	*	*	*	*	*
!LO:LB:g=original	!	!	!	!	!	!	!
2.BB-X/	di-	1D,	-a	0B-X	di-	4d\	-ti-
.	.	.	.	.	.	4e\	-a
.	.	.	.	.	.	2.f\	.
4AA/	.	.	.	.	.	.	.
!	!	!LO:LB:g=original	!	!	!	!	!
=103-	=103-	=103-	=103-	=103-	=103-	=103-	=103-
1GG	.	1G	di-	.	.	.	.
.	.	.	.	.	.	8e\L	.
.	.	.	.	.	.	8d\J	.
.	.	.	.	.	.	2e\	di-
2FF,/	-e	1A,	-e	2A/	-e	2f\	-e
2F\	ſe-	.	.	2c\	ſe-	2a\	ſe-
=104-	=104-	=104-	=104-	=104-	=104-	=104-	=104-
*	*	*	*	*	*	*custos:a	*
2D\	-cun-	1A	ſe-	2d\	-cun-	2f\	-cun-
!	!	!	!	!	!	!LO:LB:g=original	!
2F\	-du	.	.	2c\	-dum	2a\	-dum
2.F\	ſcrip-	1A	-cun-	2.c\	ſcrip-	2.f\	ſcrip-
4F\	-tu-	.	.	4c\	-tu-	4f\	-tu-
=105-	=105-	=105-	=105-	=105-	=105-	=105-	=105-
2D,\	-ras	1A,	-dum	2d\	-ras	2f\	-ras
*	*ij	*	*	*	*ij	*	*ij
2D\	ſe-	.	.	2d\	ſe-	2f\	ſe-
2D\	-cun-	1F	ſcrip-	2A/	-cun-	2a\	-cun-
*	*	*	*	*custos:c	*	*	*
2D\	-du	.	.	2d\	-dum	2f\	-dum
!	!	!	!	!LO:LB:g=original	!	!	!
=106-	=106-	=106-	=106-	=106-	=106-	=106-	=106-
2.F\	ſcrip-	1A	-tu-	1.c	ſcrip-	2.f\	ſcrip-
4F\	-tu-	.	.	.	.	4f\	-tu-
2C,\	-ras	0G,	-ras	.	.	1e	-ras
*	*Xij	*	*	*	*	*	*Xij
2C\	et	.	.	2c\	-tu-	.	.
=107-	=107-	=107-	=107-	=107-	=107-	=107-	=107-
2E\	a-	.	.	1Bny	-ras	2r	.
*	*	*	*	*	*Xij	*	*
2G\	-scen-	.	.	.	.	2d\	et
2C,/	-dit	1E	et	2r	.	2e\	as-
2C/	in	.	.	2e\	et	2g\	-cen-
=108-	=108-	=108-	=108-	=108-	=108-	=108-	=108-
1D	cae-	1F	a-	2.A/	a-	4f\	-dit
.	.	.	.	.	.	4d\	.
.	.	.	.	.	.	2.f\	in
.	.	.	.	4B/	-scen-	.	.
1C	-lum	1G	-ſcen-	1c	.	.	.
.	.	.	.	.	.	8e\L	cae-
.	.	.	.	.	.	8d\J	.
.	.	.	.	.	.	2e\	.
=109-	=109-	=109-	=109-	=109-	=109-	=109-	=109-
2r	.	1F	-dit	1A	-dit	0c	-lum
*custos:AA	*	*	*	*	*	*	*
2FF/	et	.	.	.	.	.	.
!LO:LB:g=original	!	!	!	!	!	!	!
2AA/	a	1E	in	2r	.	.	.
*	*	*	*	*	*ij	*	*
2C/	ſcen-	.	.	2G/	et	.	.
=110-	=110-	=110-	=110-	=110-	=110-	=110-	=110-
2GG/	-dit	1G	cae-	2B\	a-	2r	.
2GG/	in	.	.	2.d\	-scen-	2g\	ſe-
2D/	cae-	1A	-lum	.	.	2f\	-det
.	.	.	.	4d\	-dit	.	.
*	*	*	*	*	*Xij	*	*
2AA/	-lum,	.	.	2c\	in	2e\	ad
=111-	=111-	=111-	=111-	=111-	=111-	=111-	=111-
*	*	*lig	*	*	*	*	*
2.F\	ſe-	1A	ſe-	2c\	cae-	4f\	dex-
.	.	.	.	.	.	4g\	.
.	.	.	.	2c\	-lum	1a	-te-
4F\	-det	.	.	.	.	.	.
2D\	ad	1B-X	.	2f\	.	.	.
*	*	*	*	*	*	*custos:f	*
2E\	dex-	.	.	4e\	ſe-	2g\	-ram
.	.	.	.	4d\	.	.	.
*	*	*Xlig	*	*	*	*	*
!	!	!	!	!	!	!LO:LB:g=original	!
=112-	=112-	=112-	=112-	=112-	=112-	=112-	=112-
*	*	*	*	*	*	*lig	*
2F\	-te-	1A,	-det	4c\	-­-	1f	p(at)-
.	.	.	.	4A/	.	.	.
2D\	-ra(m)	.	.	1d	.	.	.
1AA,	p(at)-	1A	ad	.	.	1e	.
!	!	!	!	!LO:TX:a:t=P:problem=# above	!	!	!
.	.	.	.	2c#X\	.	.	.
*	*	*	*	*	*	*Xlig	*
=113-	=113-	=113-	=113-	=113-	=113-	=113-	=113-
2D\	-ris.	1A	dex-	2d\	-det	1d	-ris
2D\	ſe-	.	.	2f\	ad	.	.
*	*	*custos:A	*	*	*	*	*
2.D\	-det	1F	-te-	1f	dex-	2.A/	p(at)-
*	*ij	*	*	*	*	*	*
4D\	ad	.	.	.	.	4B/	-ris
!	!	!LO:LB:g=original	!	!	!	!	!
=114-	=114-	=114-	=114-	=114-	=114-	=114-	=114-
*	*	*	*	*custos:e	*	*	*
1AA	dex-	1A	-ram	1e	-te-	1c	.
!	!	!	!	!LO:LB:g=original	!	!	!
1C	-te-	1G	Pa-	2e\	-ram	2r	.
.	.	.	.	1cny\	p(at)-	2c/	et
=115-	=115-	=115-	=115-	=115-	=115-	=115-	=115-
1GG,	-ra(m)	1G,	-tris,	.	.	1d	i-
*	*Xij	*	*	*	*	*	*
.	.	.	.	2B\	-ris	.	.
1C	et	1E	(et)	2G/	et	2e\	-te-
.	.	.	.	1A/	i-	2c/	-rum
=116-	=116-	=116-	=116-	=116-	=116-	=116-	=116-
1D	i-	1F	i-	.	.	1f	ven-
.	.	.	.	1B	-te-	.	.
1E	-te-	1G	-te-	.	.	2e\	-tu-
.	.	.	.	1c\	-rum	2e\	-rus
=117-	=117-	=117-	=117-	=117-	=117-	=117-	=117-
2C/	-r(um)	1G,	-rum	.	.	2e\	e(st)
1C	ven-	.	.	1e	ven-	1g	ven-
.	.	1G	Ven-	.	.	.	.
*custos:GG	*	*	*	*	*	*	*
!LO:TX:t=P:problem=kreska pseudotaktowa	!	!	!	!	!	!	!
2C/	-turus	.	.	1c\	-tu-	2e\	-tu-
!LO:PB:g=original	!	!	!	!	!	!	!
=118-	=118-	=118-	=118-	=118-	=118-	=118-	=118-
0GG,	rus	1G	-tu-	.	.	0d	-r(us)
.	.	.	.	4B\	.	.	.
.	.	.	.	4A\	.	.	.
.	.	1G	-rus	2B\	.	.	.
.	.	.	.	2B\	-rus	.	.
=119-	=119-	=119-	=119-	=119-	=119-	=119-	=119-
2C,/	est	1G,	eſt	1c	est	1e	e(st)
2C/	cum	.	.	.	.	.	.
2.C/	gl(o-	1G	cum	2e\	cum	2r	.
.	.	.	.	2.c\	gl(o-	2e\	cum
4C/	-ri)-	.	.	.	.	.	.
=120-	=120-	=120-	=120-	=120-	=120-	=120-	=120-
2C/	-a	1G	glo-	.	.	2.e\	gl(o-
.	.	.	.	4c\	-ri)-	.	.
2C/	cum	.	.	2c\	-a	.	.
.	.	.	.	.	.	4e\	-ri)-
2.FF/	gl(o-	1F	-ri-	1A	cum	2f\	-a
*	*	*	*	*	*	*	*ij
*	*	*	*	*	*	*custos:c	*
.	.	.	.	.	.	2c/	cum
4FF/	-ri)-	.	.	.	.	.	.
!	!	!	!	!	!	!LO:PB:g=original	!
=121-	=121-	=121-	=121-	=121-	=121-	=121-	=121-
1C	-a	1E,	-a	2.G/	gl(o-	2.c/	gl(o-
.	.	.	.	4G/	-ri)-	4c/	-ri)-
2FF/	iu-	1F	iu-	2A/	-a	2c/	-a
*	*	*	*	*	*	*	*Xij
2FF/	-di-	.	.	2A/	iu-	2c/	iu-
=122-	=122-	=122-	=122-	=122-	=122-	=122-	=122-
2.BB-X/	-ca-	1D	-di-	1B-X	-di-	4d\	.
.	.	.	.	.	.	4e\	-di-
.	.	.	.	.	.	1f	-ca-
4AA/	-re	.	.	.	.	.	.
1GG	.	1G	-ca-	1B-	-ca-	.	.
.	.	.	.	.	.	2e\	-re
=123-	=123-	=123-	=123-	=123-	=123-	=123-	=123-
*	*	*custos:A	*	*custos:c	*	*	*
1FF,	.	1A,	-re	2A/	-re	1f	.
!	!	!	!	!LO:LB:g=original	!	!	!
.	.	.	.	2.c\	ui-	.	.
!	!	!LO:LB:g=original	!	!	!	!	!
1.F	vi-	1A	Vi-	.	.	1a	ui-
.	.	.	.	4c\	-uos	.	.
.	.	.	.	2c\	et	.	.
=124-	=124-	=124-	=124-	=124-	=124-	=124-	=124-
.	.	1A	-uos	2d\	mor-	1f	-uos
2D\	-uos	.	.	2d\	-tu-	.	.
1D	(et)	1F	(et)	2A/	-os	4d\	et
.	.	.	.	.	.	4e\	.
.	.	.	.	2d\	et	2f\	.
=125-	=125-	=125-	=125-	=125-	=125-	=125-	=125-
*	*	*lig	*	*	*	*	*
1E	mor-	1G	mor-	2c\	mor-	4e\	.
.	.	.	.	.	.	4f\	.
.	.	.	.	2Bny\	-tu-	1g	mor-
1D	-tu-	1A	.	1d	-os	.	.
!	!	!	!	!	!	!LO:TX:a:t=P:problem=# above	!
.	.	.	.	.	.	2f#X\	-tu-
*	*	*Xlig	*	*	*	*	*
=126-	=126-	=126-	=126-	=126-	=126-	=126-	=126-
2GG,/	-os	1G	-tu-	2B\	cu-	2g\	-os
*custos:BB	*	*	*	*	*	*	*
1C	cu-	.	.	1c	-i(us)	1e	cu-
.	.	1G,	-os	.	.	.	.
!LO:LB:g=original	!	!	!	!	!	!	!
2BBny/	-ius	.	.	2d\	re-	2d\	-i(us)
=127-	=127-	=127-	=127-	=127-	=127-	=127-	=127-
2C/	re-	1G	cu-	2e\	-gni	2c/	re-
2GG/	-gni	.	.	2d\	no(n)	2B/	-gni
2r	.	1G	-ius	2.B\	e-	2d\	non
2E\	non	.	.	.	.	1e\	e -
.	.	.	.	4c\	-rit	.	.
=128-	=128-	=128-	=128-	=128-	=128-	=128-	=128-
2C\	e-	1G	re-	2r	.	.	.
2BB/	-rit	.	.	2d\	non	2d\	-rit
2C/	fi-	1G,	-gni	2e\	e-	2c/	fi-
2GG/	-nis	.	.	2d\	-rit	2B/	-nis
=129-	=129-	=129-	=129-	=129-	=129-	=129-	=129-
*	*	*	*	*	*	*	*ij
*	*	*	*	*	*	*custos:e	*
2r	.	1G	non	2.B\	fi-	2g\	non
!	!	!	!	!	!	!LO:LB:g=original	!
2E\	.	.	.	.	.	1e	e-
.	.	.	.	4c\	-nis	.	.
2C\	.	1G	e-	2r	.	.	.
2BB/	.	.	.	2B\	non	2d\	-rit
=130-	=130-	=130-	=130-	=130-	=130-	=130-	=130-
0D	.	1F	-rit	2A/	e-	2.a\	fi-
*	*	*	*	*custos:d	*	*	*
.	.	.	.	2A/	-rit	.	.
.	.	.	.	.	.	4g\	.
!	!	!	!	!LO:PB:g=original	!	!LO:TX:b:t=P:problem=# below	!
.	.	1A	fi-	1d	.	1f#X	.
=131-	=131-	=131-	=131-	=131-	=131-	=131-	=131-
2GG,/	.	1G,	-nis,	2B\	.	2g,\	-nis
*	*	*	*	*	*	*	*Xij
1C	Et	.	.	2c\	Et	1e	Et
.	.	1E	et	1G	in	.	.
2C/	in	.	.	.	.	2c/	in
=132-	=132-	=132-	=132-	=132-	=132-	=132-	=132-
2.AA/	ſpi-	1F	in	2.A/	ſp(i-	2.c/	ſpi-
4AA/	-ri-	.	.	4A/	-ri-	4c/	-ri-
2GG/	-tum	1G	Spi-	2B\	-t)um	2B/	-tum
1C/	ſ(an)c-	.	.	1e\	ſ(an)c-	1c/	ſ(an)c-
=133-	=133-	=133-	=133-	=133-	=133-	=133-	=133-
.	.	1G	-ri-	.	.	.	.
2BB/	-tum	.	.	2d\	-t(u)m	2d\	-t(um)
*	*	*custos:G	*	*	*	*	*
2.C/	Do-	1G	-tum	2.c\	d(o-	2.e\	D(o-
*custos:GG	*	*	*	*	*	*	*
4C/	-mi-	.	.	4c\	-mi)-	4e\	-mi)-
!LO:LB:g=original	!	!LO:PB:g=original	!	!	!	!	!
=134-	=134-	=134-	=134-	=134-	=134-	=134-	=134-
2GG/	-num,	1G	ſan-	2B\	-num	2d\	-num
1C	ſ(an)-	.	.	1c	s(an)c-	1e	S(an)-
.	.	1G	-ctum	.	.	.	.
2BB/	-ctum	.	.	2d\	-tu(m)	2d\	-ct(um)
=135-	=135-	=135-	=135-	=135-	=135-	=135-	=135-
*lig	*	*	*	*	*	*	*
1C	Do-	1G	Do-	2.e\	d(o-	1c	D(o-
.	.	.	.	4e\	-mi)-	.	.
1D	.	1F	-mi-	2d\	-num	1A	-mi)-
.	.	.	.	1d\	d(o-	.	.
*Xlig	*	*	*	*	*	*	*
=136-	=136-	=136-	=136-	=136-	=136-	=136-	=136-
1AA	-mi-	1E,	-num	.	.	2A/	-num
!	!	!	!	!LO:TX:a:t=P:problem=# above	!	!	!
.	.	.	.	2c#X\	-mi)-	2a\	et
*	*	*lig	*	*	*	*	*
2D,/	-num	1D	(et)	1d	-num	2fny\	vi-
1F\	(et)	.	.	.	.	2a\	-ui-
=137-	=137-	=137-	=137-	=137-	=137-	=137-	=137-
.	.	1A	.	2r	.	2a\	-fi-
*	*	*	*	*	*	*custos:f	*
2F\	vi-	.	.	1cny	(et)	1f	-can-
*	*	*Xlig	*	*	*	*	*
2F\	-ui-	1A	Vi-	.	.	.	.
!	!	!	!	!	!	!LO:LB:g=original	!
2F\	-fi-	.	.	2c\	vi-	2f\	-tem
=138-	=138-	=138-	=138-	=138-	=138-	=138-	=138-
0D	-can-	1A	-ui-	2d\	-ui-	2f\	vi-
*	*	*	*	*custos:A	*	*	*
.	.	.	.	2d\	-fi-	2f\	-ui-
!	!	!	!	!LO:LB:g=original	!	!	!
.	.	1F	-fi-	1A	-can-	2d\	-fi-
.	.	.	.	.	.	2d\	-can-
=139-	=139-	=139-	=139-	=139-	=139-	=139-	=139-
1AA,	-tem	1A	-can-	1c	-tem	1e	-tem
1.C	qui	1G,	-tem	1c	q(ui)	1e	q(ui)
=140-	=140-	=140-	=140-	=140-	=140-	=140-	=140-
.	.	1E	qui	1G	ex	2e\	ex
2C/	ex	.	.	.	.	1c	p(at)-
1FF	pa-	1F	ex	1A	p(at)-	.	.
.	.	.	.	.	.	2c/	-re
=141-	=141-	=141-	=141-	=141-	=141-	=141-	=141-
1C	-tre	1G	Pa-	1c	-re	2.e\	fi-
.	.	.	.	.	.	4f\	-li-
2.GG/	fi-	1G,	-tre	2.B\	fi-	2g\	-o-
.	.	.	.	.	.	2e\	-q(ue)
4AA/	-li-	.	.	4c\	-li-	.	.
=142-	=142-	=142-	=142-	=142-	=142-	=142-	=142-
2BB/	-o-	1G	Fi-	2d\	-o-	2r	.
*custos:GG	*	*	*	*	*	*	*
2C/	-q(ue)	.	.	2G/	-q(ue)	4e\	fi-
.	.	.	.	.	.	4f\	-li-
!LO:LB:g=original	!	!	!	!	!	!	!
2.GG/	fi-	1G	-li-	2.B\	fi-	2g\	-o-
.	.	.	.	.	.	2e\	-q(ue)
4AA/	-li-	.	.	4c\	-li-	.	.
=143-	=143-	=143-	=143-	=143-	=143-	=143-	=143-
2BB/	-o-	1G	-o-	2d\	 o-	2r	.
2C/	-q(ue)	.	.	2c\	-q(ue)	2e\	pro-
*	*	*custos:F	*	*	*	*	*
1GG	pro-	1G,	-q(ue)	1B	pro-	1d	-ce-
!	!	!LO:LB:g=original	!	!	!	!	!
=144-	=144-	=144-	=144-	=144-	=144-	=144-	=144-
*	*	*	*	*lig	*	*	*
0D	-ce-	1F	pro-	1A	-ce-	2d\	-dit
*	*	*	*	*	*	*	*ij
.	.	.	.	.	.	2a\	pro-
!	!	!	!	!	!	!LO:TX:b:t=P:problem=# below	!
.	.	1A	-ce-	1d	.	1f#X	-ce-
*	*	*	*	*Xlig	*	*	*
=145-	=145-	=145-	=145-	=145-	=145-	=145-	=145-
2GG/	-dit	1G,	-dit	2B\	-dit	2g\	-dit
*	*	*	*	*	*	*	*Xij
1C	q(ui)	.	.	2c\	q(ui)	1e	qui
.	.	1E	qui	1G	cum	.	.
2C/	cum	.	.	.	.	2e\	cu(m)
=146-	=146-	=146-	=146-	=146-	=146-	=146-	=146-
1AA	p(at)-	1F	cum	1A	p(at)-	1c	P(at)-
*	*	*	*	*	*	*custos:c	*
2GG/	-re	1G	Pa-	2d\	-re	2B/	-re
!	!	!	!	!	!	!LO:LB:g=original	!
1C/	(et)	.	.	1e\	et	1c/	et
=147-	=147-	=147-	=147-	=147-	=147-	=147-	=147-
.	.	1G,	-tre	.	.	.	.
2BB/	fi-	.	.	2d\	fi-	2d\	fi-
4C/	.	1G	(et)	2c\	-li-	4e\	.
4D/	.	.	.	.	.	4fny\	.
*	*	*	*	*custos:d	*	*	*
2E\	.	.	.	2B\	-o	1g\	.
!	!	!	!	!LO:LB:g=original	!	!	!
=148-	=148-	=148-	=148-	=148-	=148-	=148-	=148-
1D	-li-	1A	Fi-	2.d\	ſi-	.	.
!	!	!	!	!	!	!LO:TX:a:t=P:problem=# above	!
.	.	.	.	.	.	2f#X\	-li-
.	.	.	.	4d\	-mul	.	.
*	*	*lig	*	*	*	*	*
2GG,/	-o	1G	-li-	2B\	a-	2g\	-o
2C/	(et)	.	.	2c\	-do-	2e\	et
=149-	=149-	=149-	=149-	=149-	=149-	=149-	=149-
1.D	fi-	1F	.	1.A	-ra-	1.d	fi-
*	*	*Xlig	*	*	*	*	*
.	.	1F	-o	.	.	.	.
2D/	-li-	.	.	2A/	-tur	2d\	-lio
=150-	=150-	=150-	=150-	=150-	=150-	=150-	=150-
*	*	*	*	*	*ij	*	*
*custos:D	*	*	*	*	*	*	*
!	!	!	!	!	!	!LO:TX:b:t=P:problem=# below	!
1AA	-o	1E	ſi-	1A	ſi-	1c#X	.
!LO:PB:g=original	!	!	!	!	!	!	!
1D	ſi-	1F	-mul	1A	-mul	2r	.
.	.	.	.	.	.	1d/	si-
=151-	=151-	=151-	=151-	=151-	=151-	=151-	=151-
1AA	-mul	1E	a-	2.A/	a-	.	.
.	.	.	.	.	.	2cny/	-mul
.	.	.	.	4G/	.	.	.
2.BB-X/	a-	1D	-do-	2F/	-do-	2.d/	a-
.	.	.	.	2.F/	-ra-	.	.
4AA/	-do-	.	.	.	.	4c/	-do-
=152-	=152-	=152-	=152-	=152-	=152-	=152-	=152-
1GG	-ra-	1G	-ra-	.	.	1B-X	-ra-
.	.	.	.	8E/L	.	.	.
.	.	.	.	8D/J	.	.	.
.	.	.	.	2E/	.	.	.
2FF/	-tur	1A	-tur	2F/	-tur	2A/	-tur
*	*	*	*	*	*Xij	*	*
2F\	(et)	.	.	2A/	et	2a\	et
=153-	=153-	=153-	=153-	=153-	=153-	=153-	=153-
*	*	*lig	*	*	*	*	*
2.F\	con-	1A	et	2c\	con-	2a\	con-
.	.	.	.	2c\	-glo-	2a\	-glo-
4F\	-glo-	.	.	.	.	.	.
*	*	*custos:A	*	*	*	*	*
2G\	-ri-	1B-X	.	2G/	-ri-	2g\	-ri-
2G\	-fi-	.	.	2d\	-fi-	2g\	-fi-
*	*	*Xlig	*	*	*	*	*
!	!	!LO:LB:g=original	!	!	!	!	!
=154-	=154-	=154-	=154-	=154-	=154-	=154-	=154-
!	!	!	!	!	!	!LO:TX:b:t=P:problem=# below	!
1D	-ca-	1A	con-	0d	 ca-	1f#X	 ca-
!	!	!	!	!	!	!LO:TX:b:t=P:problem=# below	!
1D	-t(ur)	1A	-glo-	.	.	1f#X	-tur.
=155-	=155-	=155-	=155-	=155-	=155-	=155-	=155-
2r	.	1A	-ri-	2c\	-tur	2r	.
*	*ij	*	*	*	*	*	*
2D/	(et)	.	.	2f\	.	2a\	.
2D/	con-	1F	-fi-	2f\	.	2a\	.
2D/	-glo-	.	.	2f\	.	2a\	.
=156-	=156-	=156-	=156-	=156-	=156-	=156-	=156-
2F\	-ri-	1A	-ca-	2c\	.	2fny\	.
2F\	-fi-	.	.	2c\	.	2f\	.
!	!	!	!	!LO:LB:g=original	!	!	!
2C/	-ca-	[1G;l,	-tur,	2c\@	.	1e	.
!LO:TX:t=P:problem=kreska pseudotaktowa	!	!	!	!LO:TX:t=P::problem=kreska pseudotaktowa&colon;dopisana ołówkiem	!	!	!
2C/	.	.	.	2c\	.	.	.
=157-	=157-	=157-	=157-	=157-	=157-	=157-	=157-
!	!	!LO:TX:t=P:problem=brak kreski taktowej	!	!	!	!	!
0Cl	-t(ur)	0G]	.	0cl	.	0el	.
*	*Xij	*	*	*	*	*	*
!LO:LB:g=original	!	!	!	!	!	!LO:PB:g=original	!
=158||	=158||	=158||	=158||	=158||	=158||	=158||	=158||
1E	Qui	1E	Qui	2r	.	1g	Qui
.	.	.	.	2G/	Qui	.	.
1D	lo-	1F	lo-	2.A/	.	4f\	.
.	.	.	.	.	.	4d\	.
.	.	.	.	.	.	1f\	lo-
.	.	.	.	4B/	lo-	.	.
=159-	=159-	=159-	=159-	=159-	=159-	=159-	=159-
1.C	-cu-	1G	-cu-	2c\	-cu-	.	.
.	.	.	.	2c\	-tus	4e\	.
.	.	.	.	.	.	4d\	.
.	.	1G	-tus	2c\	(est)	2e\	-cu-
2C/	-tus	.	.	2c\	p(er)	2e\	-tus
=160-	=160-	=160-	=160-	=160-	=160-	=160-	=160-
2GG/	est	1G,	eſt	2B\	p(ro)-	2d\	e(st)
1C	per	.	.	1c	-phe-	1e	per
.	.	1G	p(er)	.	.	.	.
2E\	p(ro)-	.	.	2G/	-tas	2c/	pro-
=161-	=161-	=161-	=161-	=161-	=161-	=161-	=161-
0D	-phe-	1F	Pro-	2.A/	p(er)	0d	-phe-
.	.	.	.	4G/	p(ro)-	.	.
!	!	!	!	!LO:TX:b:t=P:problem=# below	!	!	!
.	.	1A	-phe-	1F#X	-phe-	.	.
=162-	=162-	=162-	=162-	=162-	=162-	=162-	=162-
2GG,/	-tas	1G,	-tas	2G/	-tas	2B/	-tas,
1C	p(er)	.	.	2E/	.	2c/	per
.	.	1E	(et)	2G/	.	1c	Pro:
2C/	p(ro)-	.	.	2G/	.	.	.
=163-	=163-	=163-	=163-	=163-	=163-	=163-	=163-
1AA	-phe-	1F	v-	1A	.	1c	.
2GG/	-tas	1G	-nam	2r	.	2B/	.
2C/	(et)	.	.	2c\	(et)	2e\	(et)
=164-	=164-	=164-	=164-	=164-	=164-	=164-	=164-
*	*	*custos:G	*	*	*	*	*
2C/	v-	1G	ſan-	2c\	v-	2e\	v-
*	*	*	*	*custos:e	*	*	*
2BB/	-na(m)	.	.	2d\	-nam	2d\	-nam
!	!	!LO:LB:g=original	!	!LO:PB:g=original	!	!	!
1C	s(an)c-	1G,	-ctam	1e	sanc-	1c	ſanc-
=165-	=165-	=165-	=165-	=165-	=165-	=165-	=165-
2GG/	-tam	1G	Ca-	1d	-ta(m)	2B/	-ta(m)
2GG/	ca-	.	.	.	.	2B/	ca-
1C	-tho-	1G	-tho-	1e	ca-	1c	-tſo-
=166-	=166-	=166-	=166-	=166-	=166-	=166-	=166-
1D	-li-	1F	-li-	4f\	-tſo-	1A	-li-
.	.	.	.	4e\	.	.	.
.	.	.	.	1d	-li-	.	.
1AA	-cam	1E,	-cam	.	.	2A/	-ca(m)
*	*	*	*	*	*	*custos:f	*
!	!	!	!	!LO:TX:a:t=P:problem=# above	!	!	!
.	.	.	.	2c#X\	-cam	2a\	(et)
!	!	!	!	!	!	!=158-	!
=167-	=167-	=167-	=167-	=167-	=167-	=167-	=167-
*	*	*lig	*	*	*	*	*
*custos:F	*	*	*	*	*	*	*
2D/	.	1D	(et)	1d	.	2f\	A-
!LO:LB:g=original	!	!	!	!	!	!	!
2F\	(et)	.	.	.	.	2a\	-po-
2F\	a-	1A	.	2r	.	2.a\	-sto-
2F\	-pos-	.	.	2cny\	et	.	.
.	.	.	.	.	.	4a\	-li-
*	*	*Xlig	*	*	*	*	*
=168-	=168-	=168-	=168-	=168-	=168-	=168-	=168-
2.F\	-to-	1A	A-	2c\	A-	2f\	-cam
.	.	.	.	2c\	-po-	2f\	Ec-
4F\	-li-	.	.	.	.	.	.
2F\	-cam	1A	-po-	2.c\	-sto-	1.f	-cl(e-
2F\	Ec-	.	.	.	.	.	.
.	.	.	.	4c\	-li-	.	.
=169-	=169-	=169-	=169-	=169-	=169-	=169-	=169-
*	*	*lig	*	*	*	*	*
2.D/	-cl(e-	1A	-ſto-	2d\	-cam	.	.
.	.	.	.	2d\	Ec-	2f\	-si)-
4D/	-si)-	.	.	.	.	.	.
1C,	-am	1c	.	2.G/	-cl(e-	1e	-am
.	.	.	.	4G/	-si)-	.	.
*	*	*Xlig	*	*	*	*	*
=170-	=170-	=170-	=170-	=170-	=170-	=170-	=170-
1F	Ec-	1A	-li-	1A	-am	1c	Ec-
1.D	-cl(e-	1A,	-ca(m)	1d	Ec-	2.f\	-cl(e-
.	.	.	.	.	.	4e\	.
=171-	=171-	=171-	=171-	=171-	=171-	=171-	=171-
.	.	1F	Ec-	2.A/	-cl(e-	4d\	.
.	.	.	.	.	.	4e\	.
2D/	-si)-	.	.	.	.	2.f\	.
.	.	.	.	4A/	-si)-	.	.
*	*	*lig	*	*	*	*	*
1C	-am	1G	-cle-	1c	-am	.	.
.	.	.	.	.	.	8e\L	.
.	.	.	.	.	.	8d\J	.
.	.	.	.	.	.	2e\	-si)-
=172-	=172-	=172-	=172-	=172-	=172-	=172-	=172-
1FF	Ec-	1A	.	2c\	.	2f\	-am
*	*	*	*	*	*	*	*ij
.	.	.	.	1c	.	2f\	Ec-
*	*	*Xlig	*	*	*	*	*
1.GG	-cl(e-	1G	-ſi-	.	.	1.d	-cl(e-
.	.	.	.	4B\	.	.	.
.	.	.	.	4A\	.	.	.
=173-	=173-	=173-	=173-	=173-	=173-	=173-	=173-
.	.	1G,	-am,	2B\	.	.	.
*	*	*	*	*custos:g	*	*	*
2GG/	-si)-	.	.	2B\	.	2d\	-si)-
!	!	!	!	!LO:LB:g=original	!	!	!
2C,/	-am	1E	Con-	2G/	.	2e\	-am
*	*	*	*	*	*	*	*Xij
2C/	Con-	.	.	2c\	Con-	2g\	Con-
=174-	=174-	=174-	=174-	=174-	=174-	=174-	=174-
2.D/	-fi-	1F	-fi-	2.A/	-fi-	2.f\	-fi-
*	*	*	*	*	*	*custos:e	*
4D/	-te-	.	.	4A/	-te-	4f\	-te-
*custos:GG	*	*	*	*	*	*	*
!	!	!	!	!	!	!LO:LB:g=original	!
1C	-or	1G	-te-	2c\	-or	1e	-or
.	.	.	.	1c\	v-	.	.
!LO:LB:g=original	!	!	!	!	!	!	!
=175-	=175-	=175-	=175-	=175-	=175-	=175-	=175-
*	*	*custos:G	*	*	*	*	*
1.GG	v-	1G,	-or	.	.	1.d	v-
.	.	.	.	4B\	.	.	.
.	.	.	.	4A\	.	.	.
!	!	!LO:PB:g=original	!	!	!	!	!
.	.	1G	V-	1B	.	.	.
2GG/	-num	.	.	.	.	2d\	-num
=176-	=176-	=176-	=176-	=176-	=176-	=176-	=176-
1D	bap-	1F	-num	2A/	-num	2f\	bap-
.	.	.	.	2A/	bap-	1d	-tis-
1AA	-tis-	1E	Ba-	1A	-tis-	.	.
!	!	!	!	!	!	!LO:TX:b:t=P:problem=# below	!
.	.	.	.	.	.	2c#X/	-ma
=177-	=177-	=177-	=177-	=177-	=177-	=177-	=177-
1D	-ma	1F	-pti-	2A/	-ma	1d	.
.	.	.	.	2d\	in	.	.
2r	.	1D,	-ſma	2.A/	re-	2r	.
2D/	in	.	.	.	.	2f\	in
.	.	.	.	4B\	-miſ-	.	.
=178-	=178-	=178-	=178-	=178-	=178-	=178-	=178-
2AA/	re-	1E	in	2c\	-si-	2e\	re-
2C/	-miſ-	.	.	2G/	-o-	1cny	-miſ-
2.FF/	-si-	1F	re-	0A	-nem	.	.
.	.	.	.	.	.	1d/	-si-
4GG/	-o-	.	.	.	.	.	.
=179-	=179-	=179-	=179-	=179-	=179-	=179-	=179-
*^	*	*	*	*	*	*	*
1AA	1ryy	-nem	1E	-miſ-	.	.	.	.
.	.	.	.	.	.	.	2c/	-o-
2DD/	2D/	.	1D	-ſi-	2Fny/	.	2d\	-nem
2D/	2ryy	pec-	.	.	2A/	pec-	2f\	pec-
*v	*v	*	*	*	*	*	*	*
=180-	=180-	=180-	=180-	=180-	=180-	=180-	=180-
2C/	-ca-	1G	-o-	2c\	-ca-	4e\	-ca-
.	.	.	.	.	.	4f\	.
2E\	-to-	.	.	4B\	.	1g	.
.	.	.	.	4c\	.	.	.
1D	-rum,	1A,	-nem	2d\	-to-	.	.
!	!	!	!	!	!	!LO:TX:a:t=P:problem=# above	!
.	.	.	.	2d\	-rum	2f#X\	-to-
=181-	=181-	=181-	=181-	=181-	=181-	=181-	=181-
2GG/	pec-	1G	pec-	2B\	.	2g\	-rum
2C/	-ca-	.	.	2c\	pec-	2e\	pec-
*	*	*	*	*custos:d	*	*	*
1.D	-to-	1F	-ca-	1A	-ca-	2.d\	-ca-
.	.	.	.	.	.	4e\	.
!	!	!	!	!LO:LB:g=original	!	!	!
=182-	=182-	=182-	=182-	=182-	=182-	=182-	=182-
!	!	!	!	!	!	!LO:TX:a:t=P:problem=# above	!
.	.	1A	-to-	1d	-to-	4f#X\	.
.	.	.	.	.	.	2g\	.
*custos:GG	*	*	*	*	*	*	*
2D/	-rum	.	.	.	.	.	.
!	!	!	!	!	!	!LO:TX:a:t=P:problem=# above	!
.	.	.	.	.	.	4f#X\	-ro-
!LO:PB:g=original	!	!	!	!	!	!	!
2GG/	et	1G,	-rum	2B\	-ru(m)	2g\	-ru(m)
*	*	*	*	*	*	*custos:g	*
1C/	ex-	.	.	1c\	et	1e\	et
=183-	=183-	=183-	=183-	=183-	=183-	=183-	=183-
.	.	1E	(et)	.	.	.	.
!	!	!	!	!	!	!LO:LB:g=original	!
2C/	-pec-	.	.	2c\	ex-	2g\	ex-
1D	-to	1F	ex-	1A	-pec-	4fny\	-pec-
.	.	.	.	.	.	4d\	.
.	.	.	.	.	.	2.f\	-to
=184-	=184-	=184-	=184-	=184-	=184-	=184-	=184-
1C	.	1G	-pec-	1c	-to	.	.
.	.	.	.	.	.	8e\L	.
.	.	.	.	.	.	8d\J	.
.	.	.	.	.	.	2e\	.
*	*	*custos:E	*	*	*	*	*
1FF	re-	1F,	-to	2.A/	re-	2f\	.
.	.	.	.	.	.	2c/	re-
.	.	.	.	4A/	-ſur-	.	.
!	!	!LO:LB:g=original	!	!	!	!	!
=185-	=185-	=185-	=185-	=185-	=185-	=185-	=185-
1C	-ſur-	1E	re-	2G/	 rec-	2c/	-su-
.	.	.	.	2G/	-ti-	2.c/	-rec-
2.FF/	-rec-	1F	-ſur-	1A	-o-	.	.
.	.	.	.	.	.	4c/	-ti-
.	.	.	.	.	.	1d/	-o-
4GG/	-ti-	.	.	.	.	.	.
=186-	=186-	=186-	=186-	=186-	=186-	=186-	=186-
1AA	-o-	1E	-re-	1A	-nem	.	.
!	!	!	!	!	!	!LO:TX:b:t=P:problem=# below	!
.	.	.	.	.	.	2c#X/	-nem
2DD/	-nem	1D	-cti-	4F/	mor-	2d\	.
.	.	.	.	4G/	.	.	.
2D/	mor-	.	.	4A/	.	2f\	.
.	.	.	.	4B/	.	.	.
=187-	=187-	=187-	=187-	=187-	=187-	=187-	=187-
2C/	-tu-	1G	-o-	2c\	.	4e\	mor-
.	.	.	.	.	.	4f\	.
2E\	-o-	.	.	4B\	.	1g	-tu-
.	.	.	.	4c\	.	.	.
1D	-rum	1A,	-nem	2d\	-tu-	.	.
!	!	!	!	!	!	!LO:TX:a:t=P:problem=# above	!
.	.	.	.	2d\	-o-	2f#X\	.
=188-	=188-	=188-	=188-	=188-	=188-	=188-	=188-
2GG/	.	1G	mor-	2B\	-ru(m)	2g\	-o-
2C,/	mor-	.	.	2c\	.	2e\	-ru(m)
1D	-tu-	1F	-tu-	2.A/	.	1d	mor-
.	.	.	.	4G/	.	.	.
=189-	=189-	=189-	=189-	=189-	=189-	=189-	=189-
!	!	!	!	!LO:TX:b:t=P:problem=# below	!	!	!
1D	-o-	1A	-o-	1F#X	.	2d\	-tu-
.	.	.	.	.	.	2d\	-o-
1GG	-rum	1G,	-rum	2G/	.	2B/	-ru(m)
.	.	.	.	1G/	et	2d\	(et)
=190-	=190-	=190-	=190-	=190-	=190-	=190-	=190-
1C	et	1E	(et)	.	.	2e\	vi-
.	.	.	.	1A	vi-	2cny/	-tam
*custos:C	*	*	*	*	*	*	*
1D	vi-	1F	Vi-	.	.	1fny	ven-
*	*	*	*	*custos:c	*	*	*
.	.	.	.	2B\	-tam	.	.
!LO:LB:g=original	!	!	!	!LO:LB:g=original	!	!	!
=191-	=191-	=191-	=191-	=191-	=191-	=191-	=191-
2C/	-tam	1G,	-tam	2.c\	ven-	1e	-tu-
2C/	ven-	.	.	.	.	.	.
.	.	.	.	4c\	-tu-	.	.
*	*	*	*	*	*	*custos:A	*
2.FF/	-tu-	1F	Ven-	2A/	-ri	2c/	-ri
!	!	!	!	!	!	!LO:PB:g=original	!
.	.	.	.	1d\	ſe-	1A/	ven-
4GG/	.	.	.	.	.	.	.
=192-	=192-	=192-	=192-	=192-	=192-	=192-	=192-
1AA	.	1E	-tu-	.	.	.	.
.	.	.	.	4c\	.	2A/	-tu-
.	.	.	.	4B\	.	.	.
!	!	!	!	!LO:TX:a:t=P:problem=# above	!	!	!
1AA	-ri	1E	-ri	2c#X\	.	2A/	-ri
.	.	.	.	2c#\	-cu-	1a\	se-
=193-	=193-	=193-	=193-	=193-	=193-	=193-	=193-
2r	.	1D	ſae-	1d	-li	.	.
1F	ſe-	.	.	.	.	2a\	-cu-
*	*	*lig	*	*	*	*	*
.	.	1A	.	2r	.	2f\	-li
2F\	-cu-	.	.	1f\	ſe-	2.a\	a-
=194-	=194-	=194-	=194-	=194-	=194-	=194-	=194-
2D\	-li	1B-X	.	.	.	.	.
.	.	.	.	.	.	8g\L	-men
.	.	.	.	.	.	8f\J	.
2E\	a-	.	.	4e\	-cu-	2g\	.
.	.	.	.	4d\	-li	.	.
*	*	*Xlig	*	*	*	*	*
2.F\	-men	1A	-cu-	1cny	a-	2a,\	.
.	.	.	.	.	.	2f\	et
4FF/	et	.	.	.	.	.	.
=195-	=195-	=195-	=195-	=195-	=195-	=195-	=195-
2FF/	vi-	1A,	-li,	2c\	-men	2f\	vi-
2FF/	-tam	.	.	2c\	et	2f\	-tam
2.AA/	ven-	1A	A-	2c\	vi-	2e\	ven-
.	.	.	.	2c\	-tam	2.f\	-tu-
4BB/	.	.	.	.	.	.	.
=196-	=196-	=196-	=196-	=196-	=196-	=196-	=196-
*	*	*custos:F	*	*	*	*	*
1C	-tu-	1G	.	2.c\	ven-	.	.
.	.	.	.	.	.	8e\L	.
.	.	.	.	.	.	8d\J	.
.	.	.	.	.	.	2e\	.
.	.	.	.	4c\	-tu-	.	.
!	!	!LO:LB:g=original	!	!	!	!	!
1FF	-ri	0F	.	2A/	-ri	2f\	-ri
.	.	.	.	2.A/	ſe-	2.c/	ſe-
=197-	=197-	=197-	=197-	=197-	=197-	=197-	=197-
2r	.	.	.	.	.	.	.
.	.	.	.	4A/	-cu-	4c/	-cu-
1F	ſe-	.	.	2A/	-li	2f\	-li
*	*	*lig	*	*	*	*	*
.	.	1G	.	2B\	a-	2d\	a-
2E\	-cu-	.	.	2c\	-men	2e\	-men
=198-	=198-	=198-	=198-	=198-	=198-	=198-	=198-
2F\	-li	1A	.	2r	.	2r	.
*custos:C	*	*	*	*	*	*	*
2F\	A-	.	.	1c	ſe-	1f	ſe-
*	*	*Xlig	*	*	*	*	*
!LO:LB:g=original	!	!	!	!	!	!	!
1C	-men	1G	.	.	.	.	.
.	.	.	.	2c\	-cu-	1e\	-cu-
=199-	=199-	=199-	=199-	=199-	=199-	=199-	=199-
*	*	*	*	*custos:F	*	*	*
1D	ſe-	1F	.	0A	-li	.	.
.	.	.	.	.	.	1d	-li
2AA/	-cu-	1E	.	.	.	.	.
!	!	!	!	!	!	!LO:TX:b:t=P:problem=# below	!
2AA/	-li	.	.	.	.	2c#X/	a-
!	!	!	!	!LO:PB:g=original	!	!	!
=200-	=200-	=200-	=200-	=200-	=200-	=200-	=200-
*	*	*	*	*	*	*custos:f	*
0BB-X	A-	0D	.	1Fny	.	2d/	-men
!	!	!	!	!	!	!LO:LB:g=original	!
.	.	.	.	.	.	1f	a-
.	.	.	.	1G	.	.	.
.	.	.	.	.	.	4e/	-men
.	.	.	.	.	.	4d/	.
=201-	=201-	=201-	=201-	=201-	=201-	=201-	=201-
!	!	!	!	!	!	!LO:TX:b:t=P:problem=# below	!
1AA	-men	[0El	-men.	1A	.	1c#X	.
2r	.	.	.	2r	.	2r	.
2.C/	ſe-	.	.	2G/	.	2.e/	ſe-
=202-	=202-	=202-	=202-	=202-	=202-	=202-	=202-
.	.	0E_	.	2A/	.	.	.
4C/	-cu-	.	.	.	.	4e/	-cu-
2GG/	-li	.	.	2B\	.	2d/	-li
1AA	a-	.	.	4c\	.	1cny	A-
.	.	.	.	4B\	.	.	.
.	.	.	.	1A/	.	.	.
=203-	=203-	=203-	=203-	=203-	=203-	=203-	=203-
*^	*	*	*	*	*	*	*
0EEl	0El	-men.	0E]	.	.	.	0Bl	-men.
.	.	.	.	.	4G/	.	.	.
!	!	!	!	!	!LO:TX:b:t=P:problem=# below	!	!	!
.	.	.	.	.	4F#X/	.	.	.
.	.	.	.	.	1Gl	.	.	.
*v	*v	*	*	*	*	*	*	*
==	==	==	==	==	==	==	==
*-	*-	*-	*-	*-	*-	*-	*-
!!!system-decoration: s1,s2,s3,s4
!!!RDF**kern: l = terminal long
!!!RDF**kern: @ = marked note, color=grey
!!!ENC: Mateusz Solarz
!!!END: 2022-03-16
!!!ENC: Marta Lawrence
!!!END: 2022-04-04
